X:1
T:Title
%%score { ( 1 3 ) | ( 2 4 ) }
L:1/8
Q:1/4=110
M:4/4
K:Ab
V:1 treble nm="Grand Piano"
V:3 treble 
V:2 bass 
V:4 bass 
V:1
 [A,CA]3 E CEAB | c4 A2 A>A | d3 A A2 B2 | [Cc]6 E>E | [A,CA]3 E CEAB | c4 A2 [Ec]>[Ec] | %6
w: Russel~Hancock~Miels * * * * *||||||
 [EB]3 [CEA] [B,=DG]2 [A,DF]2 | E6 E2 | F2 F2 F3 F | _G2 G2 G3 G | G2 A2 B2 =A2 | B4 E4 | %12
w: ||||||
[M:6/8] z AA z AA | z cc cdc | z FF F-[EF-][EF] | F-[DF-][DF-] [DF-][DF]A | %16
w: ||||
 [G,B,EG]2 [G,G] [G,B,EG]AB | [A,CEA]2 [EA] [A,EA]Bc | B-[FB-][FB] [A,F]-[A,-=DF-][A,DF] | .G3 z3 | %20
w: ||||
 c3 c3 | e3- edc | [FB]3 c3 | d3 [A=d]3 | [Ae][A=d][Ae] [Ac]2 A | E3 B3 | [CA]6- | [CA]6 |] %28
w: ||||||||
V:2
 A,,3 E, C,E,A,B, | C4 A,2 [_G,A,C]>[G,A,C] | [F,A,D]3 [F,A,D] [D,F,D]2 [D,F,D]2 | [A,,E,]6 E,>E, | %4
 A,,3 E, C,E,A,B, | C4 A,2 [A,,A,]>[A,,A,] | [B,,G,]3 B,, B,,2 B,,2 | [E,G,B,]6 [E,G,B,]2 | %8
 [E,A,C]2 [E,A,C]2 [E,A,C]3 [E,A,C] | [E,=A,C]2 [E,A,C]2 [E,A,C]3 [E,A,C] | %10
 [E,B,D]2 [E,A,C]2 [E,G,D]2 [E,_G,C]2 | [E,G,D]8 |[M:6/8] z EE z EE | z[K:treble] AA ADC | %14
 z DD z [=A,C][A,C] | z B,B, B,B,A, | [E,,E,]3 z A,B, | z2 [A,C] z B,C | z =DD z B,B, | %19
 [G,D][B,D][A,D] [E,G,D]3 | [A,EA]3 [A,EA]3 | [A,CA]3- [A,CA][A,FA][A,EA] | [D,D]3 [F,=A,F]3 | %23
 [B,F]3 [B,,B,]3 | [E,C][E,_C][E,=C] [E,E]2 [E,CE] | [E,A,C]3 [E,G,D]3 | [A,,A,]6- | [A,,A,]6 |] %28
V:3
 x8 | x8 | x8 | x8 | x8 | x8 | x8 | x8 | x8 | x8 | x8 | x8 |[M:6/8] [Cc]3 [Cc]3 | .[Ee]6 | %14
 [B,B]3 .[=A,CE]3 | .[B,D]3 z3 | x6 | x6 | .[=DF]3 .[B,D]3 | B-[GB-][FB-] [EB]3 | x6 | x6 | x6 | %23
 x6 | x6 | x6 | x6 | x6 |] %28
V:4
 x8 | x8 | x8 | x8 | x8 | x8 | x8 | x8 | x8 | x8 | x8 | x8 |[M:6/8] [A,,A,]3 [A,,A,]3 | %13
 .[C,C]6[K:treble] | [D,,D,]3 [C,,C,]3 | [B,,,B,,]6 | z3 [E,,E,]3 | [A,,,A,,]3 [A,,,A,,]3 | %18
 [B,,F,]3 B,,3 | E,3 z3 | x6 | x6 | x6 | x6 | x6 | x6 | x6 | x6 |] %28

